X: 3262
T: Beil.la La Curuxa
R: mazurka
M: 3/4
K: Eminor
|:ef ge fd|eB eB e2|ag fe fg|f2 f2 f2|
af af ga|g2 e2 e2|gf e^d ef|1 c4 B2:|2 e4 B2||
K:Edor
|:B2 c2 d2|e2 d2 cB|cd dc dc|c2 B2 B2|
B2 c2 d2|e2 d2 cB|c2 =f3e|1 e2 e2 e2:|2 e6||
K:Emix
|:g2 g2 e2|f2 dB d2|a2 af ga|g2 eB e2|
g2 g2 e2|f2 dB d2|B2 c2 d2|1 e3f e2:|2 e6||

